brandFactory_export/1.Light/Fonendoescopio medico _1Light.svg

<?xml version="1.0" encoding="UTF-8"?>
<svg width="24px" height="24px" viewBox="0 0 24 24" version="1.1" xmlns="http://www.w3.org/2000/svg" xmlns:xlink="http://www.w3.org/1999/xlink">
    <title>1.Light/Fonendoescopio medico _1Light</title>
    <g id="Symbols" stroke="none" stroke-width="1" fill="none" fill-rule="evenodd">
        <g id="1.Light/Fonendoescopio-medico-_1Light" fill="#5CB615" fill-rule="nonzero">
            <path d="M21.102521,15.0386555 C22.1210084,15.0184874 22.6386555,14.4705882 22.6386555,13.4084034 C22.6386555,12.3428571 22.1176471,11.7882353 21.0890756,11.7647059 L20.9176471,11.7613445 L20.8739496,11.7613445 C19.8722689,11.7714286 19.3647059,12.3159664 19.3647059,13.3915966 C19.3647059,14.4705882 19.8789916,15.0218487 20.8941176,15.0386555 L21.102521,15.0386555 L21.102521,15.0386555 Z M5.28067227,14.5344538 L5.28067227,15.4789916 L6.69243697,15.4789916 L6.69243697,14.5210084 C6.43361345,14.5445378 6.17478992,14.5579832 5.91596639,14.5579832 C5.70420168,14.5613445 5.49243697,14.5512605 5.28067227,14.5344538 L5.28067227,14.5344538 Z M0.994957983,8.30588235 C1.13277311,11.805042 2.78655462,13.5764706 5.91596639,13.5764706 C9.04201681,13.5764706 10.6957983,11.805042 10.8369748,8.30588235 L9.8789916,8.30588235 C9.72773109,10.9647059 8.29915966,12.4806723 5.91596639,12.4806723 C3.52941176,12.4806723 2.10756303,10.9680672 1.95294118,8.30588235 L0.994957983,8.30588235 Z M21.5092437,10.8235294 C22.2722689,10.9378151 23.6235294,11.4184874 23.6235294,13.4117647 C23.6235294,15.8285714 21.6235294,16.0168067 21.1260504,16.0268908 L20.8840336,16.0268908 C20.3596639,16.0201681 18.3865546,15.8285714 18.3865546,13.394958 C18.3865546,11.3411765 19.7747899,10.897479 20.5243697,10.8067227 L20.5243697,8.74957983 C20.5243697,6.40336134 18.7563025,6.10756303 17.9966387,6.0907563 C17.9092437,6.08739496 17.805042,6.0907563 17.7176471,6.08739496 C16.9680672,6.09411765 15.2302521,6.36638655 15.2302521,8.73277311 L15.2336134,8.82689076 L15.2336134,18.7563025 C15.2336134,23.3042017 11.3512605,23.6067227 10.5714286,23.6201681 C10.4941176,23.6235294 10.4,23.6235294 10.3092437,23.6235294 L10.1546218,23.6235294 C7.89915966,23.589916 5.48907563,22.2857143 5.48907563,18.7294118 L5.48907563,16.4672269 L4.92773109,16.4672269 C4.58487395,16.4672269 4.29579832,16.1613445 4.29579832,15.8016807 L4.29579832,14.3932773 C1.51596639,13.7781513 0,11.4991597 0,7.81176471 C0,7.5394958 0.221848739,7.3210084 0.490756303,7.3210084 L0.954621849,7.3210084 L0.954621849,3.22016807 C0.951260504,3.08571429 0.927731092,1.72436975 1.68403361,0.944537815 C2.01680672,0.601680672 2.47394958,0.410084034 2.95462185,0.416806723 C3.14621849,0.0403361345 3.55966387,0 3.69411765,0 L3.77815126,0 C3.95294118,0.00336134454 4.63193277,0.0739495798 4.63193277,0.894117647 C4.63193277,1.71428571 3.95294118,1.78151261 3.78151261,1.78151261 L3.70084034,1.78151261 C3.5697479,1.77815126 3.17647059,1.74117647 2.97142857,1.39495798 C2.96806723,1.39495798 2.96470588,1.39831933 2.95798319,1.39831933 C2.74285714,1.38823529 2.53445378,1.47226891 2.38655462,1.62689076 C1.99327731,2.04369748 1.92941176,2.92773109 1.9394958,3.20336134 L1.9394958,7.31764706 L2.4302521,7.31764706 C2.70252101,7.31764706 2.9210084,7.5394958 2.9210084,7.80840336 C2.9210084,9.48907563 3.43865546,11.4890756 5.91596639,11.4890756 C8.38991597,11.4890756 8.91092437,9.48571429 8.91092437,7.80840336 C8.91092437,7.53613445 9.13277311,7.31764706 9.40168067,7.31764706 L9.95966387,7.31764706 L9.95966387,3.22016807 C9.9697479,2.90420168 9.90252101,2.03697479 9.50588235,1.62689076 C9.35798319,1.47226891 9.14957983,1.39159664 8.93445378,1.40168067 L8.9210084,1.39831933 C8.71932773,1.74117647 8.32605042,1.78151261 8.19495798,1.78151261 L8.11428571,1.78151261 C7.94621849,1.77815126 7.26386555,1.71428571 7.26386555,0.894117647 C7.26386555,0.0705882353 7.94285714,0.00336134454 8.11764706,0 L8.20168067,0 C8.33613445,0 8.74957983,0.0403361345 8.94453782,0.416806723 C9.44201681,0.420168067 9.88235294,0.601680672 10.2151261,0.944537815 C10.9714286,1.72773109 10.9478992,3.08571429 10.9445378,3.23697479 L10.9445378,7.31764706 L11.3378151,7.31764706 C11.610084,7.31764706 11.8285714,7.5394958 11.8285714,7.80840336 C11.8285714,11.4352941 10.3663866,13.697479 7.67731092,14.3529412 L7.67731092,15.7983193 C7.67731092,16.1579832 7.38823529,16.4638655 7.04537815,16.4638655 L6.47394958,16.4638655 L6.47394958,18.7260504 C6.47394958,22.205042 9.05546218,22.6184874 10.1680672,22.6352941 C10.2957983,22.6386555 10.4336134,22.6352941 10.5512605,22.6319328 C11.4184874,22.6151261 14.2487395,22.2890756 14.2487395,18.7529412 L14.2453782,8.74285714 C14.2453782,6.07731092 16.0336134,5.11596639 17.707563,5.10252101 C17.8084034,5.10588235 17.9294118,5.10252101 18.0235294,5.10588235 C19.707563,5.14621849 21.5092437,6.12436975 21.5092437,8.74957983 L21.5092437,10.8235294 Z M21.0722689,12.7361345 C21.2033613,12.7394958 21.707563,12.789916 21.707563,13.4016807 C21.707563,14.0168067 21.2,14.0638655 21.0756303,14.0672269 L21.0151261,14.0672269 C20.8806723,14.0638655 20.3798319,14.0168067 20.3798319,13.3983193 C20.3798319,12.7831933 20.8773109,12.7361345 21.0084034,12.7361345 L21.0722689,12.7361345 L21.0722689,12.7361345 Z" id="Fonendoescopio-medico-_1Light"></path>
        </g>
    </g>
</svg>

<svg width="24" height="24" viewBox="0 0 24 24" xmlns="http://www.w3.org/2000/svg"><path d="M21.103 15.039c1.018-.02 1.536-.568 1.536-1.63 0-1.066-.521-1.62-1.55-1.644l-.171-.004h-.044c-1.002.01-1.51.555-1.51 1.63 0 1.08.515 1.63 1.53 1.648h.209zM5.28 14.534v.945h1.411v-.958a8.575 8.575 0 01-1.411.013zM.995 8.306c.138 3.499 1.792 5.27 4.921 5.27 3.126 0 4.78-1.771 4.921-5.27h-.958c-.151 2.659-1.58 4.175-3.963 4.175-2.387 0-3.808-1.513-3.963-4.175H.995zm20.514 2.518c.763.114 2.115.594 2.115 2.588 0 2.417-2 2.605-2.498 2.615h-.242c-.524-.007-2.497-.198-2.497-2.632 0-2.054 1.388-2.498 2.137-2.588V8.75c0-2.347-1.768-2.642-2.527-2.66-.088-.003-.192 0-.28-.003-.749.007-2.487.28-2.487 2.646l.004.094v9.93c0 4.547-3.883 4.85-4.663 4.863-.077.004-.171.004-.262.004h-.154c-2.256-.034-4.666-1.338-4.666-4.895v-2.262h-.561c-.343 0-.632-.306-.632-.665v-1.409C1.516 13.778 0 11.5 0 7.812c0-.273.222-.491.49-.491h.465v-4.1C.95 3.085.928 1.723 1.684.944c.333-.343.79-.535 1.27-.528C3.147.04 3.56 0 3.695 0h.084c.175.003.854.074.854.894 0 .82-.68.888-.85.888H3.7c-.131-.004-.525-.04-.73-.387-.003 0-.006.003-.013.003a.743.743 0 00-.571.229c-.394.417-.458 1.3-.448 1.576v4.115h.491c.273 0 .491.221.491.49 0 1.681.518 3.681 2.995 3.681 2.474 0 2.995-2.003 2.995-3.68 0-.273.222-.491.49-.491h.559V3.22c.01-.316-.057-1.183-.454-1.593a.74.74 0 00-.572-.225l-.013-.004c-.202.343-.595.384-.726.384h-.08c-.169-.004-.851-.068-.851-.888 0-.823.679-.89.854-.894h.084c.134 0 .548.04.743.417.497.003.937.185 1.27.528.756.783.733 2.14.73 2.292v4.08h.393c.272 0 .49.222.49.491 0 3.627-1.462 5.89-4.15 6.545v1.445c0 .36-.29.666-.633.666h-.571v2.262c0 3.479 2.581 3.892 3.694 3.91.128.003.266 0 .383-.004.867-.017 3.698-.343 3.698-3.88l-.004-10.01c0-2.665 1.789-3.626 3.463-3.64.1.004.221 0 .316.004 1.684.04 3.485 1.018 3.485 3.644v2.074zm-.437 1.912c.131.003.636.054.636.666 0 .615-.508.662-.632.665h-.06c-.135-.003-.636-.05-.636-.669 0-.615.497-.662.628-.662h.064z" fill="#5CB615" fill-rule="nonzero"/></svg>
